X: 10
T:The Cuckoo
% Nottingham Music Database
S:McCusker Brothers
M:4/4
L:1/8
R:Hornpipe
K:G
GA|"G"BGDB "D7/a"cADc|"G"d^cde dBGF|"C"E2cB "Am"AGFG|"A7" A2/3B2/3A2/3 G2/3F2/3E2/3 "D7"D2dc|
"G"BGDB "D7/a"cADc|"G"d^cde dBGF|"C"E2cB "Am"AGFG|"D7"A2/3B2/3A2/3 GF "G"G2:|:
fg|"G"bg g2/3f2/3g2/3 dgBg|"G"bg g2/3f2/3g2/3 dgBg|
"Am"c'a a2/3^g2/3a2/3 eaca|"Am"c'a a2/3^g2/3a2/3 eaca|"G"bg g2/3f2/3g2/3 dgBg|
"G"bg g2/3f2/3g2/3 dgBg|"G"b2a2 g2/3a2/3g2/3 fd|[1"C"eg"D"fa "G"g2:|[2 "C" eg"D"fa "G"g2g2|


